X: 32449
T: Pirate's
R: hornpipe
M: 4/4
K: Gmajor
D2|:GFGA GDBD|GgdB GABG|Aced cBAG|FdAF DFAF|
GFGA GDGD|GgdB GABG|cAec BAGF|1 G2B2G2D2:|2 G2B2G2d2||
|:g2g2 fd^cd|a2 ag fd^cd|gafd cABG|FdAF D2 D/E/F|
G2G2 EcBc|A2 AG FDGD|gdcB AcFA|1 G2B2 G2d2:|2 G2B2 G2D2||

